libs/ui/packages/crypto-icons/src/svg/BTDX.svg

<svg width="24" height="24" viewBox="0 0 24 24" fill="none">
<path d="M11.9715 3.70496C7.40552 3.70496 3.70502 7.40546 3.70502 11.9715C3.70502 16.5367 7.40552 20.2387 11.9715 20.2387C16.5368 20.2387 20.2388 16.5367 20.2388 11.9715C20.2388 7.40546 16.5368 3.70496 11.9715 3.70496ZM11.9978 5.01446C12.6592 5.01425 13.311 5.17379 13.8976 5.47951C14.4841 5.78522 14.9882 6.22808 15.3669 6.7704C15.7456 7.31273 15.9878 7.9385 16.0728 8.59448C16.1577 9.25047 16.083 9.91728 15.855 10.5382C15.4999 10.4758 15.1358 10.4857 14.7845 10.5671C14.4333 10.6485 14.102 10.7999 13.8105 11.0122C14.0655 10.7684 14.2683 10.4754 14.4068 10.1509C14.5452 9.82643 14.6164 9.47724 14.616 9.12446C14.6158 8.42951 14.3398 7.76305 13.8486 7.27144C13.3574 6.77982 12.6912 6.50325 11.9963 6.50246C11.3477 6.50298 10.7223 6.74396 10.241 7.1788C9.75978 7.61365 9.45683 8.21147 9.39077 8.85671C8.89807 8.76869 8.39413 8.76362 7.89977 8.84171C7.97102 7.80334 8.43371 6.83072 9.19437 6.12031C9.95503 5.40991 10.957 5.01467 11.9978 5.01446ZM13.509 12.7335L12.0555 11.8635C12.0081 11.8349 11.9538 11.82 11.8985 11.8204C11.8431 11.8208 11.789 11.8365 11.742 11.8657L10.467 12.6532C10.4172 12.6836 10.3773 12.7279 10.3522 12.7807C10.3272 12.8334 10.3181 12.8923 10.326 12.9502C10.3595 13.1927 10.3418 13.4395 10.2739 13.6747C10.206 13.9099 10.0895 14.1283 9.93197 14.3156C9.7744 14.5029 9.57925 14.6551 9.35915 14.7623C9.13906 14.8694 8.89892 14.9292 8.65427 14.9377C8.42072 14.945 8.18808 14.9053 7.97019 14.8209C7.7523 14.7365 7.55361 14.6092 7.38595 14.4464C7.2183 14.2836 7.08509 14.0888 6.99427 13.8735C6.90344 13.6582 6.85685 13.4269 6.85727 13.1932C6.8599 12.7368 7.04054 12.2994 7.36075 11.9742C7.68096 11.6489 8.11545 11.4615 8.57177 11.4517C8.82236 11.4475 9.07092 11.4974 9.30042 11.5981C9.52993 11.6988 9.73497 11.8479 9.90152 12.0352C9.99452 12.1402 10.149 12.1627 10.2705 12.0952L11.499 11.406C11.5457 11.3796 11.5845 11.3413 11.6116 11.2951C11.6388 11.2489 11.6532 11.1963 11.6535 11.1427V11.0677C11.6531 11.0043 11.6329 10.9427 11.5956 10.8914C11.5583 10.8402 11.5059 10.8019 11.4458 10.782C11.0462 10.6487 10.7084 10.3754 10.4946 10.0125C10.2808 9.64959 10.2056 9.2216 10.2827 8.80755C10.3599 8.39349 10.5842 8.02132 10.9143 7.75976C11.2444 7.49819 11.658 7.36489 12.0788 7.38446C12.5036 7.40638 12.9059 7.58232 13.2104 7.87939C13.515 8.17645 13.7008 8.57428 13.7333 8.99846C13.7634 9.405 13.65 9.80923 13.4128 10.1408C13.1756 10.4723 12.8295 10.7101 12.435 10.8127C12.3695 10.8289 12.3112 10.8664 12.2694 10.9194C12.2276 10.9723 12.2046 11.0377 12.204 11.1052V11.118C12.204 11.223 12.2595 11.3197 12.348 11.3752L13.6388 12.1687C13.7009 12.2073 13.7749 12.2219 13.847 12.2097C13.9191 12.1976 13.9843 12.1595 14.0303 12.1027C14.1981 11.8933 14.4119 11.7255 14.6552 11.6124C14.8984 11.4992 15.1645 11.4437 15.4328 11.4502C15.8952 11.468 16.3317 11.6688 16.6461 12.0084C16.9606 12.348 17.1272 12.7986 17.1094 13.2611C17.0916 13.7236 16.8908 14.16 16.5512 14.4744C16.2116 14.7889 15.761 14.9555 15.2985 14.9377C15.063 14.9249 14.8324 14.8645 14.6208 14.7602C14.4092 14.6559 14.2209 14.5099 14.0671 14.331C13.9134 14.152 13.7975 13.9438 13.7263 13.7189C13.6551 13.494 13.6302 13.257 13.653 13.0222C13.659 12.9654 13.6487 12.908 13.6231 12.8568C13.5976 12.8057 13.558 12.7629 13.509 12.7335ZM8.59877 17.2582C8.06466 17.2584 7.53574 17.1534 7.04224 16.9491C6.54874 16.7448 6.10032 16.4453 5.72261 16.0676C5.3449 15.69 5.0453 15.2416 4.84093 14.7482C4.63656 14.2547 4.53142 13.7258 4.53152 13.1917C4.53113 12.5915 4.66363 11.9987 4.91952 11.4557C5.1754 10.9128 5.54831 10.4333 6.01148 10.0516C6.47465 9.66984 7.0166 9.3954 7.5984 9.24794C8.18021 9.10048 8.78744 9.08367 9.37652 9.19871C9.39601 9.88628 9.68537 10.5386 10.182 11.0145C9.72316 10.6792 9.16933 10.4989 8.60102 10.5C7.8948 10.5117 7.2215 10.8006 6.72625 11.3042C6.23099 11.8077 5.95345 12.4858 5.95345 13.1921C5.95345 13.8984 6.23099 14.5764 6.72625 15.08C7.2215 15.5836 7.8948 15.8724 8.60102 15.8842C9.13915 15.8841 9.66487 15.7225 10.1101 15.4204C10.5554 15.1182 10.8997 14.6893 11.0985 14.1892C11.2268 14.7487 11.4638 15.2655 11.7833 15.7215C11.4029 16.2014 10.9188 16.5891 10.3673 16.8554C9.81582 17.1216 9.21119 17.2596 8.59877 17.259V17.2582ZM15.3908 17.2582C14.36 17.2581 13.3676 16.8667 12.6143 16.1631C11.861 15.4595 11.4028 14.4961 11.3325 13.4677C11.7904 13.5374 12.2563 13.5346 12.7133 13.4595C12.7618 13.9462 12.942 14.4106 13.2346 14.8026C13.5271 15.1947 13.921 15.4996 14.3738 15.6847C14.8266 15.8698 15.3213 15.928 15.8047 15.8531C16.2881 15.7782 16.742 15.573 17.1176 15.2596C17.4932 14.9462 17.7763 14.5364 17.9365 14.0742C18.0967 13.6119 18.128 13.1148 18.0269 12.6362C17.9259 12.1576 17.6963 11.7155 17.363 11.3575C17.0296 10.9995 16.605 10.7391 16.1348 10.6042C16.2909 10.1686 16.3765 9.71082 16.3883 9.24821C17.3482 9.49284 18.1859 10.0793 18.7442 10.8977C19.3024 11.716 19.5429 12.7099 19.4205 13.6929C19.2981 14.6759 18.8212 15.5805 18.0792 16.2369C17.3373 16.8933 16.3814 17.2565 15.3908 17.2582Z" fill="#00AAFF"/>
<path d="M12 2.25C6.61575 2.25 2.25 6.61575 2.25 12C2.25 17.3842 6.61575 21.75 12 21.75C17.3842 21.75 21.75 17.3842 21.75 12C21.75 6.61575 17.3842 2.25 12 2.25ZM11.9715 21.0165C6.9765 21.0165 2.928 16.968 2.928 11.973C2.928 6.978 6.9765 2.93025 11.9715 2.93025C16.9657 2.93025 21.0142 6.97875 21.0142 11.973C21.0142 16.968 16.9657 21.0165 11.9715 21.0165Z" fill="#00AAFF"/>
</svg>

<svg width="24" height="24" viewBox="0 0 24 24" fill="none"><path fill="#0af" d="M11.972 3.705a8.267 8.267 0 1 0 0 16.534 8.267 8.267 0 0 0 0-16.534m.026 1.31a4.108 4.108 0 0 1 3.857 5.523 2.68 2.68 0 0 0-2.045.474 2.6 2.6 0 0 0 .806-1.888 2.623 2.623 0 0 0-2.62-2.622 2.62 2.62 0 0 0-2.605 2.355A4.5 4.5 0 0 0 7.9 8.842a4.11 4.11 0 0 1 4.098-3.828m1.511 7.719-1.453-.87a.3.3 0 0 0-.314.002l-1.275.787a.3.3 0 0 0-.141.297 1.75 1.75 0 0 1-1.672 1.988 1.743 1.743 0 0 1-1.797-1.745 1.75 1.75 0 0 1 1.715-1.741 1.74 1.74 0 0 1 1.33.583.3.3 0 0 0 .369.06l1.228-.689a.3.3 0 0 0 .154-.263v-.075a.3.3 0 0 0-.207-.286 1.745 1.745 0 0 1 .633-3.398 1.75 1.75 0 0 1 1.654 1.614 1.74 1.74 0 0 1-1.298 1.815.304.304 0 0 0-.231.292v.013c0 .105.055.202.144.257l1.29.794a.3.3 0 0 0 .392-.066 1.74 1.74 0 0 1 1.403-.653 1.745 1.745 0 0 1-.134 3.488 1.75 1.75 0 0 1-1.646-1.916.3.3 0 0 0-.144-.289m-4.91 4.524a4.065 4.065 0 0 1-3.68-5.802 4.065 4.065 0 0 1 4.458-2.257c.019.687.308 1.34.805 1.816a2.67 2.67 0 0 0-1.581-.515 2.692 2.692 0 0 0 0 5.384 2.69 2.69 0 0 0 2.497-1.695c.129.56.366 1.076.685 1.533A4.06 4.06 0 0 1 8.6 17.259m6.792 0a4.07 4.07 0 0 1-4.059-3.79c.458.07.924.067 1.381-.008a2.692 2.692 0 1 0 3.422-2.856c.156-.435.241-.893.253-1.356a4.068 4.068 0 0 1-.997 8.01"/><path fill="#0af" d="M12 2.25c-5.384 0-9.75 4.366-9.75 9.75s4.366 9.75 9.75 9.75 9.75-4.366 9.75-9.75S17.384 2.25 12 2.25m-.028 18.767a9.043 9.043 0 0 1-9.044-9.044 9.04 9.04 0 0 1 9.044-9.043 9.043 9.043 0 0 1 9.042 9.043 9.043 9.043 0 0 1-9.042 9.044"/></svg>
